!!!OTL: The More I See You
!!!MPN: Baker, Chet
!!!OAT: Baker, Chet
!!!OAL: It Could Happen To You
!!!ODL: 1958-08-??
!!!COM: Van Heusen, Jimmy
!!!ODT: 1943
**kern
*ITromp
*ITrd1c2
*clefG2
*G:
*k[f#]
*M4/4
=1-
2r
4g
8f#L
8aJ
=2
8gL
8dJ
4r
2r
=3
8.r
16d
8.gL
16bJ
[2dd
=4
8dd]L
8ddJ
12ccL
12dd
12eeJ
4dd
4b
=5
4.a
8b
4a
8f#L
[8dJ
=6
2d]
2r
=7
8r
4.dd
4.dd
8cc#
=8
8ddL
8gJ
4r
2r
=9
2r
8gL
8b-J
4r
=10
8r
8b-
8a-L
8gJ
8fL
8e-
8d
8fJ
=11
8a-L
8cc
8b-
8a-J
4g
4r
=12
1r
=13
8r
8dd
4r
4dd
4a
=14
4g
4r
4r
[4b
=15
8b]L
8g
8e
8dJ
8cL
8e
8g
8bJ
=16
24cLc
24dd
24cc
8g#J
8bL
8g#J
8aL
8b
8cc
8ddJ
=17
4b
4f#
4a
4e
=18
4g
4r
2r
=19
4r
[4dd
4.dd]
8r
=20
8eeL
8b
8dd
8aJ
4cc
4b
=21
4.g
8d
2r
=22
2r
4r
8ggL
8ff#J
=23
8ffL
8ee
8dd
8ccJ
8bL
8a
8g
8f#J
=24
8fL
8a
8cc
8eeJ
8ddL
8bJ
8g
8r
=25
8r
8d
8gL
8bJ
4dd
4dd
=26
4dd
8ee-L
[8ddJ
4dd]
8r
8cc
=27
12bL
12cc
12ddJ
[4g
4g]
4a
=28
4g
4r
4r
8r
8a
=29
8bL
8dJ
4r
8ccL
8f#J
4r
=30
4b
8bL
8b-J
4r
8r
[8a
=31
4a]
4f#
8r
4.a-
=32
4g
4e
8r
8g
8f#L
8eJ
=33
4f#
8gL
[8eJ
4e]
4r
==
*-
!!!OCL: Hubert Leveille Gauvin
!!!ENC: Hubert Leveille Gauvin
!!!END: 2018-04-14